X:26
T:gwel yr adeilad
T:cwyd, gwel yr adeilad
H:from John Owen, Dwyran's MScollection
N:cwyd, gwel yr adeilad
O:traditional welsh
Z:crm
M:4/4
Q:1/4=70
K:Ddor
D2AA|_BA/G/F/E/D-|D2d2|cBAc|BA3|A2AF|1GA3:|2GA||
A2|c3B|AGcB|A3A|Adcd-|dAAd|cd2A|
Adcd-|ddcA/G/|FGA2-|AAAf|feed-|dAAF|G/F/ED2-|Dz:|
:E2BB|AB/A/G/F/E-|E2e2|dcBd|cB3|B2BG|1AB3:|2AB||
:B2|d3c|BAdc|B3B|Bede-|eBBe|de2B|
Bede-|eedB/A/|GAB2-|BBBg|gffe-|eBBG|A/G/FE2-|Ez:||
